src/assets/outline/Chart1.svg

<svg width="24" height="24" viewBox="0 0 24 24"  xmlns="http://www.w3.org/2000/svg">
<path d="M7 14.6905C6.59 14.6905 6.25 14.3505 6.25 13.9405V10.7305C6.25 10.3205 6.59 9.98047 7 9.98047C7.41 9.98047 7.75 10.3205 7.75 10.7305V13.9405C7.75 14.3605 7.41 14.6905 7 14.6905Z" />
<path d="M12 16.43C11.59 16.43 11.25 16.09 11.25 15.68V9C11.25 8.59 11.59 8.25 12 8.25C12.41 8.25 12.75 8.59 12.75 9V15.68C12.75 16.09 12.41 16.43 12 16.43Z" />
<path d="M17 14.6905C16.59 14.6905 16.25 14.3505 16.25 13.9405V10.7305C16.25 10.3205 16.59 9.98047 17 9.98047C17.41 9.98047 17.75 10.3205 17.75 10.7305V13.9405C17.75 14.3605 17.41 14.6905 17 14.6905Z" />
<path d="M15 22.75H9C3.57 22.75 1.25 20.43 1.25 15V9C1.25 3.57 3.57 1.25 9 1.25H15C20.43 1.25 22.75 3.57 22.75 9V15C22.75 20.43 20.43 22.75 15 22.75ZM9 2.75C4.39 2.75 2.75 4.39 2.75 9V15C2.75 19.61 4.39 21.25 9 21.25H15C19.61 21.25 21.25 19.61 21.25 15V9C21.25 4.39 19.61 2.75 15 2.75H9Z" />
</svg>

<?xml version="1.0" encoding="UTF-8"?>
<svg width="24" height="24" viewBox="0 0 24 24" xmlns="http://www.w3.org/2000/svg">
 <path d="m7 14.69c-0.41 0-0.75-0.34-0.75-0.75v-3.21c0-0.41 0.34-0.75003 0.75-0.75003s0.75 0.34003 0.75 0.75003v3.21c0 0.42-0.34 0.75-0.75 0.75z"/>
 <path d="m12 16.43c-0.41 0-0.75-0.34-0.75-0.75v-6.68c0-0.41 0.34-0.75 0.75-0.75s0.75 0.34 0.75 0.75v6.68c0 0.41-0.34 0.75-0.75 0.75z"/>
 <path d="m17 14.69c-0.41 0-0.75-0.34-0.75-0.75v-3.21c0-0.41 0.34-0.75003 0.75-0.75003s0.75 0.34003 0.75 0.75003v3.21c0 0.42-0.34 0.75-0.75 0.75z"/>
 <path d="m15 22.75h-6c-5.43 0-7.75-2.32-7.75-7.75v-6c0-5.43 2.32-7.75 7.75-7.75h6c5.43 0 7.75 2.32 7.75 7.75v6c0 5.43-2.32 7.75-7.75 7.75zm-6-20c-4.61 0-6.25 1.64-6.25 6.25v6c0 4.61 1.64 6.25 6.25 6.25h6c4.61 0 6.25-1.64 6.25-6.25v-6c0-4.61-1.64-6.25-6.25-6.25h-6z"/>
</svg>
